X: 2440
T: VAILLANCE POLKA MILATARE
N: The title's spelling is a bit odd.
R: polka
B: Kerr's v.2 p.51 #440
Z: 2016 John Chambers <jc:trillian.mit.edu>
M: 2/4
L: 1/16
K: G
D2 !segno!|\
B2B2B2B2 | d2c2 cBc2 | f2f2e2e2 | e2d2 d^cd2 |\
B2B2B2B2 | d2c2 cBc2 | f2f2e2d2 | gdBd "_Fine."g4 H|]
a2AA A2df | a2AA A2df | a2AA A2A2 | dAdf eA^ce |\
a2AA A2df | a2AA A2df | a2df eA^ce | d2dd ^cc=cc |][K:=f]
P: TRIO.
K: C
[|\
"^>"c4 "_>"B3"_>"A | "^>"G4 "^>"E4 | "^>"A4 "^>"G3"^>"E | "^>"E4 "^>"C4 |\
.d.e.d.e .d.g.g.g | .c.d.c.d .c.g.g.g | .A.B.A.B .A.d.d.d |[1 .G.A.G.A Gddd |[2 .c.G.E.G c4 |]
K: G
[|\
BBB2 eee2 | c2A2 ddd2 | B2G2 AAA2 | AAA2 ddd2 |\
BBB2 eee2 | c2A2 ddd2 | B2G2 AAA2 | ddd2 dAdf |
d2dd dAdf | d2dd dAdf | dAdf dAdf | dAdf dAdf |\
d2d2d2d2 | d2d2 "_D.C."^c2=c2 !segno!|]
